static/assets/img/decorations/deco-lines-3.svg

<svg width="184" height="91" viewBox="0 0 184 91" fill="none" xmlns="http://www.w3.org/2000/svg">
<path d="M183.861 90.676C183.216 90.694 182.593 90.768 181.978 90.718C178.394 90.43 174.81 90.115 171.228 89.799C170.751 89.758 170.259 89.723 169.812 89.574C167.279 88.731 164.646 88.602 162.015 88.436C159.222 88.259 156.431 88.068 153.642 87.857C145.665 87.251 137.673 87.086 129.681 86.925C125.927 86.851 122.173 86.811 118.421 86.759C110.349 86.648 102.276 86.563 94.2042 86.419C90.2902 86.351 86.3782 86.204 82.4662 86.036C78.8742 85.883 75.2822 85.722 71.7002 85.438C68.1182 85.154 64.5482 84.713 60.9732 84.344C58.8302 84.123 56.6862 83.93 54.5472 83.69C50.4202 83.227 46.2852 82.824 42.1762 82.235C38.6232 81.726 35.1062 80.964 31.5652 80.371C28.2562 79.817 24.9382 79.338 21.6242 78.829C19.0992 78.44 16.5692 78.077 14.0502 77.663C12.9412 77.481 11.8532 77.268 10.7342 77.601C10.0312 77.81 9.5192 77.468 9.0582 76.954C8.2422 76.045 8.12421 74.948 8.17521 73.816C8.20021 73.277 8.5772 72.929 9.1142 72.905C9.6692 72.881 10.2312 72.928 10.7842 72.996C14.1942 73.414 17.5982 73.887 21.0142 74.264C28.0082 75.034 34.9242 76.325 41.8542 77.495C46.1982 78.228 50.5592 78.721 54.9282 79.18C60.0902 79.723 65.2762 80.036 70.4362 80.6C78.1532 81.444 85.8892 81.807 93.6432 81.911C98.9932 81.982 104.346 81.935 109.696 82.038C117.926 82.194 126.157 82.443 134.389 82.633C137.106 82.695 139.828 82.62 142.543 82.738C148.531 82.999 154.523 83.249 160.5 83.677C166.555 84.111 172.594 84.733 178.635 85.321C179.821 85.436 180.996 85.723 182.149 86.032C182.567 86.143 183.11 86.471 183.243 86.831C183.674 88.002 184.201 89.195 183.861 90.676Z" fill="black"/>
<path d="M15.541 53.8029C16.256 53.6289 16.777 53.3869 17.293 53.4009C18.969 53.4399 20.645 53.5609 22.318 53.6739C25.902 53.9179 29.482 54.3239 33.068 54.4039C41.929 54.6009 50.791 55.1379 59.662 54.6379C63.805 54.4039 67.953 54.2359 72.101 54.0559C74.494 53.9519 76.888 53.8839 79.281 53.7979C79.92 53.7759 80.562 53.7749 81.197 53.7119C86.529 53.1919 91.885 53.1649 97.228 52.9169C101.058 52.7379 104.886 52.4849 108.718 52.3489C113.267 52.1849 117.822 51.9789 122.372 52.0209C133.245 52.1229 144.11 51.8879 154.977 51.5639C159.288 51.4369 163.606 51.5369 167.92 51.6059C169.352 51.6279 170.781 51.8729 172.209 52.0369C173.291 52.1619 174.193 52.6719 174.838 53.5369C175.531 54.4709 176.5 55.2699 176.594 56.7439C176.114 56.8399 175.674 57.0269 175.25 56.9959C172.945 56.8269 170.646 56.5509 168.338 56.4189C166.666 56.3239 164.983 56.3539 163.307 56.4039C157.965 56.5619 152.625 56.7749 147.286 56.9269C145.13 56.9879 142.972 56.9409 140.815 56.9549C138.659 56.9689 136.504 57.0239 134.348 57.0129C129.723 56.9899 125.096 56.8339 120.473 56.9189C114.967 57.0229 109.463 57.3199 103.957 57.5339C102.529 57.5909 101.1 57.6379 99.67 57.7119C96.805 57.8599 93.94 58.0129 91.074 58.1869C88.205 58.3609 85.338 58.5799 82.467 58.7489C79.44 58.9269 76.41 59.0479 73.383 59.2299C70.358 59.4129 67.338 59.6739 64.311 59.8439C57.688 60.2149 51.057 60.1229 44.428 60.0279C42.117 59.9939 39.819 59.6999 37.512 59.5669C32.342 59.2699 27.178 58.7599 22.037 58.1349C20.539 57.9509 19.06 57.7709 17.555 57.7489C16.596 57.7349 16.008 57.3419 15.83 56.4739C15.672 55.7029 15.654 54.9029 15.541 53.8029Z" fill="black"/>
<path d="M1.25602 29.021C2.34802 28.979 3.37703 28.9121 4.40803 28.9061C13.281 28.8541 22.154 28.8911 31.025 28.7421C37.736 28.6291 44.443 28.168 51.154 28.069C57.386 27.977 63.621 28.133 69.853 28.227C74.087 28.29 78.324 28.3941 82.556 28.5491C90.294 28.8331 98.029 29.18 105.767 29.478C111.277 29.691 116.788 29.844 122.296 30.069C126.368 30.236 130.437 30.481 134.509 30.68C136.265 30.766 138.023 30.8321 139.78 30.8931C149.048 31.2131 158.317 31.511 167.583 31.857C170.698 31.974 173.815 32.141 176.921 32.421C178.581 32.571 180.232 32.9461 181.853 33.3541C182.419 33.4971 183.136 33.9391 183.337 34.4281C183.714 35.3471 184.202 36.3271 183.88 37.4071C183.724 37.9281 183.234 38.1981 182.53 38.1091C181.102 37.9311 179.68 37.717 178.253 37.554C171.747 36.81 165.208 36.508 158.671 36.231C152.202 35.957 145.726 35.859 139.255 35.595C134.704 35.409 130.159 35.074 125.612 34.806C122.915 34.647 120.216 34.505 117.52 34.332C115.374 34.194 113.227 34.0501 111.086 33.8541C109.584 33.7161 108.107 33.533 106.574 33.675C105.002 33.821 103.39 33.6861 101.806 33.5491C100.464 33.4321 99.144 33.074 97.802 32.94C96.781 32.837 95.722 32.798 94.71 32.94C91.911 33.33 89.148 32.791 86.37 32.779C84.302 32.771 82.247 32.569 80.179 32.541C78.224 32.515 76.228 32.7731 74.277 32.2691C73.675 32.1141 72.99 32.086 72.382 32.203C71.669 32.34 71.005 32.624 70.37 32.037C70.323 31.993 70.19 31.967 70.147 31.999C68.915 32.939 67.686 31.946 66.456 31.994C65.106 32.046 63.755 31.888 62.421 32.309C61.919 32.467 61.292 32.4561 60.784 32.3081C59.526 31.9421 58.292 32.183 57.044 32.248C55.773 32.314 54.466 32.5511 53.237 32.3411C51.948 32.1201 50.71 32.166 49.452 32.304C47.235 32.547 45.018 32.1701 42.807 32.3241C39.498 32.5551 36.168 32.4471 32.881 33.0141C32.18 33.1351 31.455 33.1821 30.742 33.1651C28.449 33.1111 26.158 33.4151 23.857 32.8901C22.66 32.6171 21.334 32.442 20.091 33.069C19.767 33.232 19.312 33.1821 18.921 33.1601C14.228 32.8901 9.53802 33.0651 4.85102 33.2731C4.53102 33.2871 4.21002 33.2991 3.89402 33.3421C1.61102 33.6581 0.630023 32.407 0.869023 29.974C0.895023 29.751 1.04302 29.538 1.25602 29.021Z" fill="black"/>
<path d="M182.207 16.842C181.119 16.441 180.186 16.073 179.234 15.752C178.332 15.447 177.404 15.424 176.441 15.391C173.332 15.282 170.218 15.062 167.132 14.675C165.357 14.452 163.636 14.721 161.89 14.744C160.933 14.757 160.023 14.776 159.072 14.489C158.347 14.27 157.441 14.255 156.722 14.485C155.288 14.945 153.923 14.565 152.527 14.479C150.48 14.352 148.466 13.933 146.371 14.316C144.91 14.583 143.367 14.384 141.859 14.404C139.869 14.43 137.877 14.505 135.886 14.487C134.698 14.476 133.513 14.33 132.327 14.241C132.091 14.223 131.813 14.092 131.628 14.174C129.851 14.956 128.007 14.236 126.196 14.418C124.794 14.559 123.344 14.204 121.915 14.125C120.886 14.068 119.843 14.018 118.821 14.114C116.272 14.353 113.743 13.789 111.194 13.991C110.005 14.086 108.796 13.926 107.606 14.026C104.96 14.251 102.348 13.896 99.725 13.706C99.176 13.666 98.598 13.626 98.071 13.745C97.354 13.907 96.669 13.858 95.948 13.839C93.096 13.763 90.243 13.807 87.423 13.256C87.038 13.181 86.626 13.217 86.228 13.228C81.359 13.355 76.529 12.822 71.701 12.325C66.623 11.803 61.556 11.158 56.484 10.591C54.904 10.415 53.31 10.375 51.738 10.165C49.052 9.80604 46.392 9.21104 43.699 8.99304C40.519 8.73604 37.412 8.00003 34.23 7.78003C32.406 7.65303 30.593 7.33303 28.781 7.07303C24.916 6.52003 21.051 5.96803 17.191 5.37503C15.855 5.17003 14.535 4.85203 13.209 4.57703C11.572 4.23803 9.93802 3.89303 8.25402 4.17703C7.74802 3.32803 8.13102 2.95904 8.65402 2.32904C9.29502 1.55504 9.94701 1.98802 10.603 1.87802C10.88 1.48502 11.148 1.10802 11.49 0.624023C12.886 0.715023 14.326 0.733039 15.744 0.915039C21.213 1.61604 26.678 2.35402 32.14 3.10602C38.236 3.94602 44.322 4.84202 50.421 5.66302C53.669 6.10102 56.931 6.44203 60.189 6.80603C65.748 7.42703 71.302 8.10302 76.873 8.61902C80.689 8.97302 84.525 9.16004 88.359 9.30704C94.666 9.54704 100.976 9.77702 107.287 9.86002C114.955 9.96102 122.627 9.95004 130.297 9.90604C141.406 9.84204 152.516 9.65702 163.627 9.62402C167.541 9.61302 171.457 9.85503 175.369 10.065C176.799 10.142 178.224 10.417 179.635 10.686C180.33 10.819 181.024 11.074 181.653 11.4C182.505 11.842 182.794 12.617 182.575 13.623C182.458 14.165 182.175 14.679 182.108 15.223C182.045 15.741 182.166 16.278 182.207 16.842ZM10.258 3.24304C10.309 3.13004 10.369 3.02005 10.404 2.90305C10.41 2.88105 10.279 2.78403 10.259 2.79703C10.157 2.86403 10.073 2.95402 9.98201 3.03702C10.074 3.10502 10.166 3.17404 10.258 3.24304ZM42.617 7.58704C42.504 7.64404 42.322 7.67803 42.295 7.76303C42.262 7.86403 42.361 8.00903 42.402 8.13403C42.556 8.06203 42.713 7.98902 42.867 7.91702C42.785 7.80802 42.701 7.69804 42.617 7.58704ZM13.744 3.13702C13.683 3.15702 13.623 3.17604 13.562 3.19604C13.642 3.24604 13.72 3.30404 13.806 3.33704C13.826 3.34504 13.878 3.26404 13.915 3.22504C13.859 3.19504 13.801 3.16702 13.744 3.13702Z" fill="black"/>
</svg>

<svg fill="none" height="91" viewBox="0 0 184 91" width="184" xmlns="http://www.w3.org/2000/svg"><g fill="#000"><path d="m183.861 90.676c-.645.018-1.268.092-1.883.042-3.584-.288-7.168-.603-10.75-.919-.477-.041-.969-.076-1.416-.225-2.533-.843-5.166-.972-7.797-1.138-2.793-.177-5.584-.368-8.373-.579-7.977-.606-15.969-.771-23.961-.932-3.754-.074-7.508-.114-11.26-.166-8.072-.111-16.145-.196-24.2168-.34-3.914-.068-7.826-.215-11.738-.383-3.592-.153-7.184-.314-10.766-.598s-7.152-.725-10.727-1.094c-2.143-.221-4.287-.414-6.426-.654-4.127-.463-8.262-.866-12.371-1.455-3.553-.509-7.07-1.271-10.611-1.864-3.309-.554-6.627-1.033-9.941-1.542-2.525-.389-5.055-.752-7.574-1.166-1.109-.182-2.197-.395-3.316-.062-.703.209-1.215-.133-1.676-.647-.816-.909-.93399-2.006-.88299-3.138.025-.539.40199-.887.93899-.911.555-.024 1.117.023 1.67.091 3.41.418 6.814.891 10.23 1.268 6.994.77 13.91 2.061 20.84 3.231 4.344.733 8.705 1.226 13.074 1.685 5.162.543 10.348.856 15.508 1.42 7.717.844 15.453 1.207 23.207 1.311 5.35.071 10.7028.024 16.0528.127 8.23.156 16.461.405 24.693.595 2.717.062 5.439-.013 8.154.105 5.988.261 11.98.511 17.957.939 6.055.434 12.094 1.056 18.135 1.644 1.186.115 2.361.402 3.514.711.418.111.961.439 1.094.799.431 1.171.958 2.364.618 3.845z"/><path d="m15.541 53.8029c.715-.174 1.236-.416 1.752-.402 1.676.039 3.352.16 5.025.273 3.584.244 7.164.65 10.75.73 8.861.197 17.723.734 26.594.234 4.143-.234 8.291-.402 12.439-.582 2.393-.104 4.787-.172 7.18-.258.639-.022 1.281-.023 1.916-.086 5.332-.52 10.688-.547 16.031-.795 3.83-.179 7.658-.432 11.49-.568 4.549-.164 9.104-.37 13.654-.328 10.873.102 21.738-.133 32.605-.457 4.311-.127 8.629-.027 12.943.042 1.432.022 2.861.267 4.289.431 1.082.125 1.984.635 2.629 1.5.693.934 1.662 1.733 1.756 3.207-.48.096-.92.283-1.344.252-2.305-.169-4.604-.445-6.912-.577-1.672-.095-3.355-.065-5.031-.015-5.342.158-10.682.371-16.021.523-2.156.061-4.314.014-6.471.028-2.156.014-4.311.069-6.467.058-4.625-.023-9.252-.179-13.875-.094-5.506.104-11.01.401-16.516.615-1.428.057-2.857.104-4.287.178-2.865.148-5.73.301-8.596.475-2.869.174-5.736.393-8.607.562-3.027.178-6.057.299-9.084.481-3.025.183-6.045.444-9.072.614-6.623.371-13.254.279-19.883.184-2.311-.034-4.609-.328-6.916-.461-5.17-.297-10.334-.807-15.475-1.432-1.498-.184-2.977-.364-4.482-.386-.959-.014-1.547-.407-1.725-1.275-.158-.771-.176-1.571-.289-2.671z"/><path d="m1.25602 29.021c1.092-.042 2.12101-.1089 3.15201-.1149 8.87297-.052 17.74597-.015 26.61697-.164 6.711-.113 13.418-.5741 20.129-.6731 6.232-.092 12.467.064 18.699.158 4.234.063 8.471.1671 12.703.3221 7.738.284 15.473.6309 23.211.9289 5.51.213 11.021.366 16.529.591 4.072.167 8.141.412 12.213.611 1.756.086 3.514.1521 5.271.2131 9.268.32 18.537.6179 27.803.9639 3.115.117 6.232.284 9.338.564 1.66.15 3.311.5251 4.932.9331.566.143 1.283.585 1.484 1.074.377.919.865 1.899.543 2.979-.156.521-.646.791-1.35.702-1.428-.178-2.85-.3921-4.277-.5551-6.506-.744-13.045-1.046-19.582-1.323-6.469-.274-12.945-.372-19.416-.636-4.551-.186-9.096-.521-13.643-.789-2.697-.159-5.396-.301-8.092-.474-2.146-.138-4.293-.2819-6.434-.4779-1.502-.138-2.979-.3211-4.512-.1791-1.572.146-3.184.0111-4.768-.1259-1.342-.117-2.662-.4751-4.004-.6091-1.021-.103-2.08-.142-3.092 0-2.799.39-5.562-.149-8.34-.161-2.068-.008-4.123-.21-6.191-.238-1.955-.026-3.951.2321-5.902-.2719-.602-.155-1.287-.1831-1.895-.0661-.713.137-1.377.421-2.012-.166-.047-.044-.18-.07-.223-.038-1.232.94-2.461-.053-3.691-.005-1.35.052-2.701-.106-4.035.315-.502.158-1.129.1471-1.637-.0009-1.258-.366-2.492-.1251-3.74-.0601-1.271.066-2.578.3031-3.807.0931-1.289-.221-2.527-.1751-3.785-.0371-2.217.243-4.434-.1339-6.645.0201-3.309.231-6.639.123-9.926.69-.701.121-1.426.168-2.139.151-2.293-.054-4.584.25-6.885-.275-1.197-.273-2.523-.4481-3.766.1789-.324.163-.779.1131-1.17.0911-4.693-.27-9.38298-.095-14.06998.113-.32.014-.641.026-.957.069-2.283.316-3.263997-.9351-3.024997-3.3681.026-.223.173997-.436.386997-.953z"/><path d="m182.207 16.842c-1.088-.401-2.021-.769-2.973-1.09-.902-.305-1.83-.328-2.793-.361-3.109-.109-6.223-.329-9.309-.716-1.775-.223-3.496.046-5.242.069-.957.013-1.867.032-2.818-.255-.725-.219-1.631-.234-2.35-.004-1.434.46-2.799.08-4.195-.006-2.047-.127-4.061-.546-6.156-.163-1.461.267-3.004.068-4.512.088-1.99.026-3.982.101-5.973.083-1.188-.011-2.373-.157-3.559-.246-.236-.018-.514-.149-.699-.067-1.777.782-3.621.062-5.432.244-1.402.141-2.852-.214-4.281-.293-1.029-.057-2.072-.107-3.094-.011-2.549.239-5.078-.325-7.627-.123-1.189.095-2.398-.065-3.588.035-2.646.225-5.258-.13-7.881-.32-.549-.04-1.127-.08-1.654.039-.717.162-1.402.113-2.123.094-2.852-.076-5.705-.032-8.525-.583-.385-.075-.797-.039-1.195-.028-4.869.127-9.699-.406-14.527-.903-5.078-.522-10.145-1.167-15.217-1.734-1.58-.176-3.174-.216-4.746-.426-2.686-.35896-5.346-.95396-8.039-1.17196-3.18-.257-6.287-.99301-9.469-1.21301-1.824-.127-3.637-.447-5.449-.707-3.865-.553-7.73-1.105-11.59-1.698-1.336-.205-2.656-.523-3.982-.798-1.637-.339-3.27098-.684-4.95498-.4-.506-.849-.123-1.21799.4-1.84799.641-.774 1.29299-.34102 1.94898-.45102.277-.393.545-.77.887-1.253997 1.396.091 2.836.109016 4.254.291016 5.469.701001 10.934 1.438981 16.396 2.190981 6.096.84 12.182 1.736 18.281 2.557 3.248.438 6.51.77901 9.768 1.14301 5.559.621 11.113 1.29699 16.684 1.81299 3.816.354 7.652.54102 11.486.68802 6.307.24 12.617.46998 18.928.55298 7.668.101 15.34.09002 23.01.04602 11.109-.064 22.219-.24902 33.33-.28202 3.914-.011 7.83.23101 11.742.44098 1.43.077 2.855.352 4.266.621.695.133 1.389.388 2.018.714.852.442 1.141 1.217.922 2.223-.117.542-.4 1.056-.467 1.6-.063.518.058 1.055.099 1.619zm-171.949-13.59896c.051-.113.111-.22299.146-.33999.006-.022-.125-.11902-.145-.10602-.102.067-.186.15699-.27699.23999.09199.068.18399.13702.27599.20602zm32.359 4.344c-.113.057-.295.09099-.322.17599-.033.101.066.246.107.371.154-.072.311-.14501.465-.21701-.082-.109-.166-.21898-.25-.32998zm-28.873-4.45002c-.061.02-.121.03902-.182.05902.08.05.158.108.244.141.02.008.072-.073.109-.112-.056-.03-.114-.05802-.171-.08802z"/></g></svg>
